X:49
T:Fiddling Up a Storm
R:reel
C:Paul S. Cranford
O:Cape Breton Island
S:http://www.cranfordpub.com
D:currently unrecorded
B:currently unpublished in book form
Z:psc, (re-formatted,updated 9/17/04)
N:Commisioned by Fiddler magazine, 2003
H:                                                        copyrights Cranford Publications, SOCAN
L:1/8
Q:333
M:C|
K:D
E|D2 (DE (3FED) FG|ADdD ADFA|d2 (B/c/d) ADFD|GA,EA, CEA,C|
D2 (DE (3FED) FG|ADdD ADFA|dA (B/c/d) AFdF|EecA d2 d:|
||f|:adfd edBe|dDAF EDB,E|(DE F/E/D) ADdB|[1AFDF E2 fg|
adfd edBe|dDAF EDB,E|(DE F/E/D) AFdf|edef d2 fg:|
[2AFDF E2 FE|DA,DE (3(FED) AF|GEGB A(F (3ABc)|dABd AFdF|EecA d2 d|]
